X: 42247
T: We'll All Lie Together
R: slip jig
M: 9/8
K: Amixolydian
|:A2 c e2 c d2 G|A2 c e2 c dcB|A2 c e2 c d3|BdB G2 B d2 B:|
|:A2 E E2 F G2 E|A2 E E2 c dcB|A2 E E2 F G3|BdB G2 B dcB:|
|:A2 c E2 c d3|A2 c E2 c dcB|A2 c E2 c d3|BdB G2 B dcB:|
|:A2 e e2 f g3|A2 e e2 c dcB|A2 e e2 f g3|B/c/dB GBc d2 B:|

